Papirus-Dark/16x16/actions/node-add.svg

<?xml version="1.0" encoding="UTF-8" standalone="no"?>
<svg xmlns="http://www.w3.org/2000/svg" width="16" height="16" viewBox="0 0 16 16">
 <defs>
  <style type="text/css" id="current-color-scheme">
   .ColorScheme-Text { color:#d3dae3; }
  </style>
 </defs>
 <path style="fill:currentColor;opacity:1" class="ColorScheme-Text" d="M 6.9960938 0 L 6.9960938 3 L 3.9980469 3 L 3.9980469 5 L 6.9960938 5 L 6.9960938 8 L 8.9960938 8 L 8.9960938 5 L 11.994141 5 L 11.994141 3 L 8.9960938 3 L 8.9960938 0 L 6.9960938 0 z M 5 9 L 5 12 L 0.58789062 12 A 0.5 0.5 0 0 0 0.58789062 13 L 5 13 L 5 16 L 11 16 L 11 13 L 15.492188 13 A 0.5 0.5 0 0 0 15.492188 12 L 11 12 L 11 9 L 5 9 z"/>
</svg>

<?xml version="1.0" encoding="UTF-8" standalone="no"?>
<svg id="svg6394" xmlns:rdf="http://www.w3.org/1999/02/22-rdf-syntax-ns#" xmlns="http://www.w3.org/2000/svg" xmlns:osb="http://www.openswatchbook.org/uri/2009/osb" height="16" width="16" version="1.1" xmlns:cc="http://creativecommons.org/ns#" viewBox="0 0 16 16" xmlns:dc="http://purl.org/dc/elements/1.1/">
 <metadata id="metadata6399">
  <rdf:RDF>
   <cc:Work rdf:about="">
    <dc:format>image/svg+xml</dc:format>
    <dc:type rdf:resource="http://purl.org/dc/dcmitype/StillImage"/>
    <dc:title/>
   </cc:Work>
  </rdf:RDF>
 </metadata>
 <path id="path10583" opacity="1" fill="#d3dae3" style="fill-rendering:auto;text-decoration-fill:#d3dae3;fill:#d3dae3;isolation:auto;mix-blend-mode:normal;shape-rendering:auto;solid-fill:#d3dae3;block-progression:tb;text-decoration-line:none;text-decoration-style:solid;image-rendering:auto;white-space:normal;text-indent:0;text-transform:none" d="m6.9961 0v3h-2.9981v2h2.9981v3h2v-3h2.9979v-2h-2.9979v-3h-2zm-1.9961 9v3h-4.4121a0.5 0.5 0 0 0 -0.00001 1h4.4121v3h6v-3h4.492a0.5 0.5 0 0 0 0 -1h-4.492v-3h-6z"/>
</svg>
